packages/vapor/resources/icons/svg/logo.svg

<svg height="37" viewBox="0 0 100 37" width="100" xmlns="http://www.w3.org/2000/svg"><g fill="none" fill-rule="evenodd"><g fill="#fff"><path d="m90.9596429 18.5769307c-4.9696429 0-8.8771429 3.9326238-8.8771429 9.0734257 0 5.1371386 3.9075 9.0715941 8.8771429 9.0715941 4.9757142 0 8.8825-3.9282277 8.8825-9.0715941 0-5.1408019-3.9071429-9.0734257-8.8825-9.0734257zm0 15.0117426c-3.1603572 0-5.6832143-2.7281089-5.6832143-5.9383169 0-3.2475742 2.5228571-5.9408812 5.6832143-5.9408812 3.1657142 0 5.6839285 2.693307 5.6839285 5.9408812 0 3.2098416-2.5182143 5.9383169-5.6839285 5.9383169z"/><path d="m69.5082143 18.578396c-5.3642857 0-8.0975 3.9311585-8.0975 9.1778317 0 5.0294357 3.0860714 8.9657228 8.1675 8.9657228 3.2328571 0 6.1414286-1.7137228 7.7078571-4.6649307l-2.6996428-1.5686535c-1.2075 2.0419604-2.5221429 3.3186436-4.975 3.3186436-3.0539286 0-4.9778572-2.7281089-5.0064286-5.6511089l12.6857143.0025643v-.5077425c.0003571-5.064604-2.4889286-9.0723268-7.7825-9.0723268zm-4.7342857 7.1036337c.3967857-2.4500594 2.2453571-4.260495 4.7289285-4.260495 2.5617858 0 4.1967858 1.7071287 4.5835715 4.260495z"/><path d="m49.0107143 29.7241881-4.7603572-10.6373168h-3.5857142l8.3460714 17.6347129 8.3821428-17.6409406h-3.5882142z"/><path d="m27.9817857 18.5769307c-4.9728571 0-8.8771428 3.9326238-8.8771428 9.0734257 0 5.1371386 3.9046428 9.0715941 8.8771428 9.0715941s8.8825-3.9282277 8.8825-9.0715941c0-5.1408019-3.9125-9.0734257-8.8825-9.0734257zm0 15.0117426c-3.1607143 0-5.6857143-2.7281089-5.6857143-5.9383169 0-3.2475742 2.525-5.9408812 5.6857143-5.9408812 3.1628572 0 5.6807143 2.693307 5.6807143 5.9408812 0 3.2098416-2.5175 5.9383169-5.6807143 5.9383169z"/><path d="m.0975 27.7587921c0 5.1063663 4.01357143 8.9649901 8.91607143 8.9649901 1.66964287 0 3.12749997-.3300693 4.58178567-1.1330792v-4.1861287c-1.2057142 1.377792-2.6989285 2.2526039-4.54499996 2.2526039-3.37607143 0-5.75392857-2.5482376-5.75392857-6.0478515 0-3.1351089 2.41428572-5.9705544 5.53857143-5.9705544 1.9189286 0 3.4821429.7982475 4.7603571 2.2903366v-4.220198c-1.2782142-.7660099-2.9142857-1.1305149-4.40249996-1.1305149-5.11857143 0-9.09535714 3.9018515-9.09535714 9.1803961z"/></g><path d="m76.2207143 8.2949604-13.7875-8.25173268v16.26754458z" fill="#f58025"/></g></svg>

<svg width="100px" height="37px" viewBox="0 0 100 37" version="1.1" xmlns="http://www.w3.org/2000/svg" xmlns:xlink="http://www.w3.org/1999/xlink">
  <g stroke="none" stroke-width="1" fill="none" fill-rule="evenodd">
    <g transform="translate(-15.000000, -12.000000)">
      <g transform="translate(15.000000, 12.000000)">
        <path d="M90.9596429,18.5769307 C85.99,18.5769307 82.0825,22.5095545 82.0825,27.6503564 C82.0825,32.787495 85.99,36.7219505 90.9596429,36.7219505 C95.9353571,36.7219505 99.8421429,32.7937228 99.8421429,27.6503564 C99.8421429,22.5095545 95.935,18.5769307 90.9596429,18.5769307 L90.9596429,18.5769307 Z M90.9596429,33.5886733 C87.7992857,33.5886733 85.2764286,30.8605644 85.2764286,27.6503564 C85.2764286,24.4027822 87.7992857,21.7094752 90.9596429,21.7094752 C94.1253571,21.7094752 96.6435714,24.4027822 96.6435714,27.6503564 C96.6435714,30.860198 94.1253571,33.5886733 90.9596429,33.5886733 L90.9596429,33.5886733 Z" fill="#FFFFFF"></path>
        <path d="M69.5082143,18.578396 C64.1439286,18.578396 61.4107143,22.5095545 61.4107143,27.7562277 C61.4107143,32.7856634 64.4967857,36.7219505 69.5782143,36.7219505 C72.8110714,36.7219505 75.7196429,35.0082277 77.2860714,32.0570198 L74.5864286,30.4883663 C73.3789286,32.5303267 72.0642857,33.8070099 69.6114286,33.8070099 C66.5575,33.8070099 64.6335714,31.078901 64.605,28.155901 L77.2907143,28.1584653 L77.2907143,27.6507228 C77.2910714,22.5861188 74.8017857,18.578396 69.5082143,18.578396 L69.5082143,18.578396 Z M64.7739286,25.6820297 C65.1707143,23.2319703 67.0192857,21.4215347 69.5028571,21.4215347 C72.0646429,21.4215347 73.6996429,23.1286634 74.0864286,25.6820297 L64.7739286,25.6820297 L64.7739286,25.6820297 Z" fill="#FFFFFF"></path>
        <path d="M49.0107143,29.7241881 L44.2503571,19.0868713 L40.6646429,19.0868713 L49.0107143,36.7215842 L57.3928571,19.0806436 L53.8046429,19.0806436 L49.0107143,29.7241881 Z" fill="#FFFFFF"></path>
        <path d="M27.9817857,18.5769307 C23.0089286,18.5769307 19.1046429,22.5095545 19.1046429,27.6503564 C19.1046429,32.787495 23.0092857,36.7219505 27.9817857,36.7219505 C32.9542857,36.7219505 36.8642857,32.7937228 36.8642857,27.6503564 C36.8642857,22.5095545 32.9517857,18.5769307 27.9817857,18.5769307 L27.9817857,18.5769307 Z M27.9817857,33.5886733 C24.8210714,33.5886733 22.2960714,30.8605644 22.2960714,27.6503564 C22.2960714,24.4027822 24.8210714,21.7094752 27.9817857,21.7094752 C31.1446429,21.7094752 33.6625,24.4027822 33.6625,27.6503564 C33.6625,30.860198 31.145,33.5886733 27.9817857,33.5886733 L27.9817857,33.5886733 Z" id="Shape" fill="#FFFFFF"></path>
        <path d="M0.0975,27.7587921 C0.0975,32.8651584 4.11107143,36.7237822 9.01357143,36.7237822 C10.6832143,36.7237822 12.1410714,36.3937129 13.5953571,35.590703 L13.5953571,31.4045743 C12.3896429,32.7823663 10.8964286,33.6571782 9.05035714,33.6571782 C5.67428571,33.6571782 3.29642857,31.1089406 3.29642857,27.6093267 C3.29642857,24.4742178 5.71071429,21.6387723 8.835,21.6387723 C10.7539286,21.6387723 12.3171429,22.4370198 13.5953571,23.9291089 L13.5953571,19.7089109 C12.3171429,18.942901 10.6810714,18.578396 9.19285714,18.578396 C4.07428571,18.578396 0.0975,22.4802475 0.0975,27.7587921 L0.0975,27.7587921 Z" id="Shape" fill="#FFFFFF"></path>
        <path d="M76.2207143,8.2949604 L62.4332143,0.0432277228 L62.4332143,16.3107723 L76.2207143,8.2949604 L76.2207143,8.2949604 Z" fill="#F58025"></path>
      </g>
    </g>
  </g>
</svg>
